svg/aws-kms.svg

<?xml version="1.0" encoding="UTF-8"?>
<svg xmlns="http://www.w3.org/2000/svg" xmlns:xlink="http://www.w3.org/1999/xlink" width="32" height="32" viewBox="0 0 32 32">
<defs>
<linearGradient id="linear-pattern-0" gradientUnits="userSpaceOnUse" x1="0" y1="1" x2="1" y2="0" gradientTransform="matrix(32, 0, 0, 32, 0, 0)">
<stop offset="0" stop-color="rgb(74.117649%, 3.137255%, 8.627451%)" stop-opacity="1"/>
<stop offset="1" stop-color="rgb(100%, 32.156864%, 32.156864%)" stop-opacity="1"/>
</linearGradient>
</defs>
<rect x="-3.2" y="-3.2" width="38.4" height="38.4" fill="url(#linear-pattern-0)"/>
<path fill-rule="evenodd" fill="rgb(100%, 100%, 100%)" fill-opacity="1" d="M 21.421875 21 L 24.421875 21 L 24.421875 20 L 21.421875 20 Z M 17.421875 21 L 20.421875 21 L 20.421875 20 L 17.421875 20 Z M 13.421875 21 L 16.421875 21 L 16.421875 20 L 13.421875 20 Z M 18.421875 17.75 C 18.421875 17.335938 18.757812 17 19.171875 17 C 19.585938 17 19.921875 17.335938 19.921875 17.75 C 19.921875 18.164062 19.585938 18.5 19.171875 18.5 C 18.757812 18.5 18.421875 18.164062 18.421875 17.75 M 20.921875 17.75 C 20.921875 16.785156 20.136719 16 19.171875 16 C 18.207031 16 17.421875 16.785156 17.421875 17.75 C 17.421875 18.714844 18.207031 19.5 19.171875 19.5 C 20.136719 19.5 20.921875 18.714844 20.921875 17.75 M 15.171875 18.5 C 14.757812 18.5 14.421875 18.164062 14.421875 17.75 C 14.421875 17.335938 14.757812 17 15.171875 17 C 15.585938 17 15.921875 17.335938 15.921875 17.75 C 15.921875 18.164062 15.585938 18.5 15.171875 18.5 M 15.171875 16 C 14.207031 16 13.421875 16.785156 13.421875 17.75 C 13.421875 18.714844 14.207031 19.5 15.171875 19.5 C 16.136719 19.5 16.921875 18.714844 16.921875 17.75 C 16.921875 16.785156 16.136719 16 15.171875 16 M 26.921875 13 L 26.921875 23 C 26.921875 23.273438 26.695312 23.5 26.421875 23.5 L 13.421875 23.5 L 13.421875 22.5 L 25.921875 22.5 L 25.921875 13.5 L 16.421875 13.5 L 16.421875 12.5 L 26.421875 12.5 C 26.695312 12.5 26.921875 12.722656 26.921875 13 M 10.453125 11.945312 C 9.90625 11.945312 9.464844 11.503906 9.460938 10.957031 C 9.460938 10.410156 9.902344 9.964844 10.449219 9.964844 C 10.996094 9.96875 11.441406 10.410156 11.441406 10.957031 C 11.4375 11.5 10.996094 11.941406 10.453125 11.945312 M 10.453125 8.96875 C 9.355469 8.96875 8.460938 9.859375 8.460938 10.957031 C 8.507812 12.023438 9.386719 12.859375 10.449219 12.859375 C 11.515625 12.859375 12.394531 12.023438 12.441406 10.957031 C 12.441406 9.859375 11.550781 8.972656 10.453125 8.96875 M 11.765625 15.023438 C 11.558594 15.089844 11.417969 15.28125 11.421875 15.5 L 11.421875 24.789062 L 10.449219 25.738281 L 9.421875 24.335938 L 9.421875 23.019531 C 9.421875 22.875 9.355469 22.734375 9.246094 22.640625 L 8.191406 21.742188 L 9.246094 20.847656 C 9.359375 20.753906 9.421875 20.613281 9.421875 20.464844 L 9.421875 19.617188 C 9.421875 19.46875 9.359375 19.328125 9.246094 19.234375 L 8.191406 18.339844 L 9.246094 17.441406 C 9.355469 17.347656 9.421875 17.207031 9.421875 17.0625 L 9.421875 15.5 C 9.421875 15.28125 9.28125 15.085938 9.070312 15.023438 C 6.882812 14.328125 5.628906 12.195312 6.09375 9.949219 C 6.429688 8.328125 7.667969 7.039062 9.273438 6.636719 C 10.632812 6.300781 12.027344 6.59375 13.097656 7.433594 C 14.164062 8.265625 14.785156 9.539062 14.78125 10.890625 C 14.78125 12.777344 13.5625 14.445312 11.765625 15.023438 M 15.78125 10.890625 C 15.785156 9.234375 15.023438 7.664062 13.714844 6.644531 C 12.402344 5.617188 10.695312 5.257812 9.035156 5.664062 C 7.054688 6.164062 5.53125 7.75 5.113281 9.75 C 4.578125 12.320312 5.976562 14.898438 8.421875 15.851562 L 8.421875 16.832031 L 7.097656 17.957031 C 6.984375 18.050781 6.921875 18.191406 6.921875 18.339844 C 6.921875 18.484375 6.984375 18.625 7.097656 18.71875 L 8.421875 19.847656 L 8.421875 20.234375 L 7.097656 21.363281 C 6.988281 21.460938 6.921875 21.597656 6.921875 21.746094 C 6.921875 21.890625 6.988281 22.03125 7.097656 22.125 L 8.421875 23.25 L 8.421875 24.5 C 8.421875 24.605469 8.457031 24.710938 8.519531 24.792969 L 9.984375 26.792969 C 10.070312 26.910156 10.203125 26.984375 10.347656 26.996094 C 10.363281 26.996094 10.375 27 10.390625 27 C 10.523438 27 10.648438 26.949219 10.738281 26.855469 L 12.269531 25.355469 C 12.367188 25.261719 12.421875 25.132812 12.421875 25 L 12.421875 15.847656 C 14.453125 15.042969 15.785156 13.078125 15.78125 10.890625 M 15.78125 10.890625 "/>
</svg>

<svg role="img" viewBox="0 0 32 32" xmlns="http://www.w3.org/2000/svg"><defs><linearGradient gradientTransform="scale(32)" gradientUnits="userSpaceOnUse" id="aws-kms_svg__a" x1="0" x2="1" y1="1" y2="0"><stop offset="0" stop-color="rgb(74.117649%, 3.137255%, 8.627451%)"/><stop offset="1" stop-color="rgb(100%, 32.156864%, 32.156864%)"/></linearGradient></defs><path d="M-3.2-3.2h38.4v38.4H-3.2z" fill="url(#aws-kms_svg__a)"/><path d="M21.422 21h3v-1h-3Zm-4 0h3v-1h-3Zm-4 0h3v-1h-3Zm5-3.25a.75.75 0 1 1 1.5 0 .75.75 0 0 1-1.5 0m2.5 0c0-.965-.785-1.75-1.75-1.75s-1.75.785-1.75 1.75.785 1.75 1.75 1.75 1.75-.785 1.75-1.75m-5.75.75a.75.75 0 1 1 0-1.5.75.75 0 0 1 0 1.5m0-2.5c-.965 0-1.75.785-1.75 1.75s.785 1.75 1.75 1.75 1.75-.785 1.75-1.75-.785-1.75-1.75-1.75m11.75-3v10c0 .273-.227.5-.5.5h-13v-1h12.5v-9h-9.5v-1h10c.273 0 .5.223.5.5m-16.469-1.055a.99.99 0 1 1 .988-.988.997.997 0 0 1-.988.988m0-2.976c-1.098 0-1.992.89-1.992 1.988a1.99 1.99 0 0 0 1.988 1.902 1.99 1.99 0 0 0 1.992-1.902 1.99 1.99 0 0 0-1.988-1.988m1.313 6.054a.49.49 0 0 0-.344.477v9.29l-.973.948-1.027-1.402V23.02a.5.5 0 0 0-.176-.38l-1.055-.898 1.055-.894a.5.5 0 0 0 .176-.383v-.848a.5.5 0 0 0-.176-.383l-1.055-.894 1.055-.899a.5.5 0 0 0 .176-.378V15.5a.495.495 0 0 0-.352-.477c-2.187-.695-3.441-2.828-2.976-5.074a4.32 4.32 0 0 1 3.18-3.312c1.359-.336 2.753-.043 3.824.797a4.37 4.37 0 0 1 1.683 3.457 4.34 4.34 0 0 1-3.015 4.132m4.015-4.132a5.37 5.37 0 0 0-2.066-4.246c-1.313-1.028-3.02-1.387-4.68-.98A5.34 5.34 0 0 0 5.113 9.75a5.37 5.37 0 0 0 3.309 6.102v.98l-1.324 1.125a.5.5 0 0 0-.176.383c0 .144.062.285.176.379l1.324 1.129v.386l-1.324 1.13a.5.5 0 0 0-.176.382c0 .145.066.285.176.379l1.324 1.125v1.25c0 .105.035.21.098.293l1.464 2a.5.5 0 0 0 .364.203l.043.004c.132 0 .257-.05.347-.145l1.532-1.5a.5.5 0 0 0 .152-.355v-9.152a5.32 5.32 0 0 0 3.36-4.957m0 0" fill="rgb(100%, 100%, 100%)" fill-rule="evenodd"/></svg>
